X: 47
T: ORANGES AND LEMONS
B: FIFTY OLD ENGLISH FOLK DANCE AIRS", Edgar H. Hunt ed., Schott & Co. Ltd. pub., London 1939
Z: 2004-2014 John Chambers <jc:trillian.mit.edu>
M: 2/2
L: 1/8
K: C
|:\
c2d2 (ge)dc | (d3c) A3G |\
(c3e) (ge)dc |[1 (d3e) c4 :|[2 d3 e c2 ||
|: (fg) |\
a6 (ef) | g6 (ed) |\
(c3e) (ge)dc | (d3c) A3G |\
(c3e) (ge)dc | (d3e) c2(fg) |
a6 (ef) | g6 (ed) |\
(c3e) (ge)dc | (d3c) A3G |\
(c3e) (ge)dc |[1 (d3e) c2 :|[2 (d3e) c4 |]

%%sep 1 1 500
%%sep 1 1 500
